X: 1
T: Blackthorn Stick (Set Dance Tune), The
M: 6/8
L: 1/8
R: jig
K: Gmaj
d|BAG ECE|DB,D EGF|G2D GAB|cdc BAG|BdB A2D|
|:GAB cdc|BAG Bcd|edc BAG |(3EFG E DB,D|EGF G2D:|
